icon/io/watch-sharp.svg

<svg xmlns="http://www.w3.org/2000/svg" width="512" height="512"><rect x="136" y="136" width="240" height="240" rx="8" ry="8"/><path d="M384 96h-48V16H176v80h-48a32 32 0 0 0-32 32v256a32 32 0 0 0 32 32h48v80h160v-80h48a32 32 0 0 0 32-32V128a32 32 0 0 0-32-32Zm8 272a24 24 0 0 1-24 24H144a24 24 0 0 1-24-24V144a24 24 0 0 1 24-24h224a24 24 0 0 1 24 24Z"/></svg>

<svg xmlns="http://www.w3.org/2000/svg" viewBox="0 0 512 512" height="1em" width="1em">
  <rect x="136" y="136" width="240" height="240" rx="8" ry="8"/>
  <path d="M384,96H336V16H176V96H128a32,32,0,0,0-32,32V384a32,32,0,0,0,32,32h48v80H336V416h48a32,32,0,0,0,32-32V128A32,32,0,0,0,384,96Zm8,272a24,24,0,0,1-24,24H144a24,24,0,0,1-24-24V144a24,24,0,0,1,24-24H368a24,24,0,0,1,24,24Z"/>
</svg>
